images/wishlist.svg

<svg width="24" height="24" viewBox="0 0 24 24" fill="none" xmlns="http://www.w3.org/2000/svg">
<path d="M21.7956 2.40336C20.5222 1.02302 18.834 0.183784 17.0379 0.0382817C15.2417 -0.107221 13.4571 0.450672 12.0085 1.6105C10.4824 0.380453 8.58295 -0.17731 6.69259 0.0495328C4.80224 0.276376 3.06141 1.27097 1.82066 2.83304C0.579915 4.39511 -0.0685862 6.40861 0.00575165 8.46808C0.0800895 10.5276 0.871744 12.48 2.2213 13.9323L11.1569 23.6155C11.2684 23.7374 11.401 23.8341 11.5472 23.9C11.6934 23.966 11.8501 24 12.0085 24C12.1668 24 12.3236 23.966 12.4697 23.9C12.6159 23.8341 12.7485 23.7374 12.86 23.6155L21.7956 13.9323C22.4945 13.1755 23.0488 12.2768 23.4271 11.2877C23.8053 10.2986 24 9.23848 24 8.16782C24 7.09716 23.8053 6.037 23.4271 5.04791C23.0488 4.05882 22.4945 3.16018 21.7956 2.40336ZM20.1045 12.0996L12.0085 20.86L3.91246 12.0996C3.19902 11.3233 2.71302 10.3359 2.51543 9.26136C2.31783 8.18684 2.41744 7.07301 2.80175 6.05959C3.18607 5.04618 3.83798 4.17831 4.6757 3.56486C5.51342 2.95141 6.49966 2.61969 7.51068 2.61132C8.86135 2.61491 10.1555 3.19925 11.1089 4.23603C11.2204 4.35785 11.3531 4.45455 11.4992 4.52054C11.6454 4.58652 11.8022 4.6205 11.9605 4.6205C12.1188 4.6205 12.2756 4.58652 12.4218 4.52054C12.5679 4.45455 12.7006 4.35785 12.8121 4.23603C13.7936 3.31434 15.0615 2.83117 16.3594 2.8843C17.6572 2.93744 18.8879 3.52291 19.8024 4.52222C20.717 5.52154 21.247 6.86005 21.2853 8.26685C21.3235 9.67365 20.8672 11.0437 20.0085 12.0996H20.1045Z" fill="#403148"/>
</svg>

<svg width="24" height="24" fill="none" xmlns="http://www.w3.org/2000/svg"><path d="M21.796 2.403c-1.274-1.38-2.962-2.22-4.758-2.365-1.796-.145-3.58.413-5.03 1.573C10.482.38 8.584-.177 6.693.05 4.803.276 3.06 1.27 1.82 2.833.58 4.395-.07 6.409.006 8.468c.074 2.06.866 4.012 2.215 5.464l8.936 9.684c.111.121.244.218.39.284a1.12 1.12 0 0 0 .923 0c.146-.066.278-.163.39-.284l8.936-9.684a8.226 8.226 0 0 0 1.631-2.644c.378-.99.573-2.05.573-3.12 0-1.07-.195-2.131-.573-3.12a8.226 8.226 0 0 0-1.631-2.645zM20.105 12.1l-8.097 8.76-8.096-8.76A5.722 5.722 0 0 1 2.515 9.26a5.997 5.997 0 0 1 .287-3.201 5.496 5.496 0 0 1 1.874-2.495A4.86 4.86 0 0 1 7.51 2.61c1.35.004 2.644.588 3.598 1.625a1.2 1.2 0 0 0 .39.285 1.12 1.12 0 0 0 .923 0 1.2 1.2 0 0 0 .39-.285c.982-.922 2.25-1.405 3.547-1.352 1.298.053 2.529.639 3.443 1.638.915 1 1.445 2.338 1.483 3.745.038 1.407-.418 2.777-1.276 3.833h.096z" fill="#403148"/></svg>
